img/idea.svg

<svg width="44" height="44" viewBox="0 0 44 44" fill="none" xmlns="http://www.w3.org/2000/svg">
<g clip-path="url(#clip0_1_11546)">
<path d="M24.3697 -0.000976562C15.3791 -0.000976562 8.0647 7.31345 8.0647 16.304V18.9778L3.52478 26.7914C3.46771 26.8897 3.4375 27.0015 3.4375 27.1153V29.8291C3.4375 30.1852 3.7262 30.4736 4.08203 30.4736H8.0647L8.06503 34.8121C8.06503 36.7376 9.63138 38.304 11.5569 38.304H12.8681C13.224 38.304 13.5123 38.0153 13.5123 37.6595C13.5123 37.3033 13.224 37.0149 12.8678 37.0149H11.5569C10.342 37.0149 9.3541 36.0266 9.3541 34.8121V30.4736H11.2007C11.5566 30.4736 11.8453 30.1852 11.8453 29.8291V25.558C11.8453 25.2022 11.5566 24.9135 11.2007 24.9135H9.77707C9.4209 24.9135 9.13254 25.2022 9.13254 25.558C9.13254 25.9142 9.4209 26.2026 9.77707 26.2026H10.5562V29.1845H4.72656V27.6263H6.92938C7.28522 27.6263 7.57391 27.3376 7.57391 26.9817C7.57391 26.6255 7.28522 26.3372 6.92938 26.3372H5.27979L9.25809 19.4897C9.31885 19.391 9.35376 19.2752 9.35376 19.1517V16.304C9.35376 8.02444 16.0898 1.28809 24.3697 1.28809C32.6499 1.28809 39.3859 8.02444 39.3859 16.304V21.9987C39.3859 28.1919 35.6822 33.6533 29.9402 35.9467H28.2849C27.9287 35.9467 27.6403 36.2351 27.6403 36.5913C27.6403 36.9474 27.9287 37.2358 28.2849 37.2358H29.4202V42.71H17.54V38.304H19.0308C19.387 38.304 19.6753 38.0156 19.6753 37.6595C19.6753 37.3036 19.387 37.0149 19.0308 37.0149H16.8971H16.8954H15.4503C15.0945 37.0149 14.8058 37.3033 14.8058 37.6595C14.8058 38.0153 15.0945 38.304 15.4503 38.304H16.2509V43.3545C16.2509 43.7107 16.5396 43.999 16.8954 43.999H30.0647C30.4205 43.999 30.7092 43.7107 30.7092 43.3545V37.025C33.5559 35.8239 35.9883 33.8513 37.7642 31.2987C39.6682 28.5612 40.675 25.3456 40.675 21.9987V16.304C40.675 7.31345 33.3605 -0.000976562 24.3697 -0.000976562Z" fill="white"/>
<path d="M15.885 15.5923C15.885 17.3319 16.408 19.0033 17.398 20.4263C18.2798 21.6939 19.4729 22.6859 20.8677 23.3163V24.6467H20.8006C20.4444 24.6467 20.156 24.935 20.156 25.2912C20.156 25.647 20.4444 25.9357 20.8006 25.9357H20.8677V27.6938C20.8677 28.0496 21.1564 28.3383 21.5122 28.3383H21.5797V29.8294C21.5797 30.1853 21.8684 30.474 22.2242 30.474H26.4953C26.8511 30.474 27.1398 30.1853 27.1398 29.8294V28.3383H27.2073C27.5631 28.3383 27.8518 28.0496 27.8518 27.6938V25.9357H27.9189C28.2751 25.9357 28.5635 25.647 28.5635 25.2912C28.5635 24.935 28.2751 24.6467 27.9189 24.6467H27.8518V23.3163C29.2466 22.6859 30.4397 21.6939 31.3215 20.4263C32.3112 19.0033 32.8345 17.3319 32.8345 15.5923C32.8345 10.9192 29.0328 7.11743 24.3596 7.11743C19.6867 7.11743 15.885 10.9192 15.885 15.5923ZM22.8688 17.6606H23.381L24.6157 18.8956C24.7366 19.0164 24.9007 19.0846 25.0716 19.0846C25.2425 19.0846 25.4066 19.0164 25.5275 18.8956L25.8507 18.5723V22.2441H22.8688V17.6606ZM25.8507 29.1849H22.8688V28.3383H25.8507V29.1849ZM26.5627 27.0492H22.1568V25.9357H26.5627V27.0492ZM22.1568 24.6467V23.5332H26.5627V24.6467H22.1568ZM24.3599 8.40649C28.3221 8.40649 31.5454 11.6302 31.5454 15.5923C31.5454 18.5146 29.822 21.0957 27.1398 22.2193V17.016C27.1398 17.016 27.1398 17.016 27.1398 17.0157V16.304C27.1398 15.9482 26.8511 15.6595 26.4953 15.6595C26.1391 15.6595 25.8507 15.9482 25.8507 16.304V16.7491L25.0716 17.5283L24.1038 16.5601C23.9829 16.4393 23.8188 16.3715 23.6479 16.3715H22.8688V16.304C22.8688 15.9482 22.5804 15.6595 22.2242 15.6595C21.8684 15.6595 21.5797 15.9482 21.5797 16.304V22.2193C18.8975 21.0957 17.1741 18.5146 17.1741 15.5923C17.1741 11.6302 20.3974 8.40649 24.3599 8.40649Z" fill="white"/>
<path d="M25.0041 5.62631V3.49097C25.0041 3.1348 24.7157 2.84644 24.3596 2.84644C24.0037 2.84644 23.715 3.1348 23.715 3.49097V5.62631C23.715 5.98248 24.0037 6.27084 24.3596 6.27084C24.7157 6.27084 25.0041 5.98248 25.0041 5.62631Z" fill="white"/>
<path d="M16.1955 6.60557C15.9438 6.35413 15.5356 6.35413 15.2838 6.60557C15.0324 6.85734 15.0324 7.26554 15.2838 7.51731L16.7941 9.02726C16.92 9.15315 17.0848 9.21626 17.2499 9.21626C17.4148 9.21626 17.5796 9.15315 17.7055 9.02726C17.9573 8.77549 17.9573 8.36762 17.7055 8.11585L16.1955 6.60557Z" fill="white"/>
<path d="M14.3049 15.0369H12.1693C11.8134 15.0369 11.5247 15.3256 11.5247 15.6814C11.5247 16.0376 11.8134 16.3259 12.1693 16.3259H14.3049C14.6608 16.3259 14.9495 16.0376 14.9495 15.6814C14.9495 15.3256 14.6608 15.0369 14.3049 15.0369Z" fill="white"/>
<path d="M16.7944 22.3354L15.2841 23.8457C15.0323 24.0975 15.0323 24.5054 15.2841 24.7571C15.41 24.883 15.5748 24.9458 15.7396 24.9458C15.9048 24.9458 16.0696 24.883 16.1955 24.7571L17.7058 23.2472C17.9576 22.9954 17.9576 22.5872 17.7058 22.3354C17.454 22.0837 17.0458 22.084 16.7944 22.3354Z" fill="white"/>
<path d="M31.014 22.3353C30.7623 22.5871 30.7623 22.9949 31.014 23.2467L32.524 24.757C32.6499 24.8829 32.815 24.9457 32.9798 24.9457C33.1447 24.9457 33.3098 24.8829 33.4357 24.757C33.6875 24.5052 33.6875 24.097 33.4357 23.8453L31.9254 22.3353C31.6737 22.0835 31.2658 22.0835 31.014 22.3353Z" fill="white"/>
<path d="M36.5503 16.3259C36.9065 16.3259 37.1948 16.0372 37.1948 15.6814C37.1948 15.3252 36.9065 15.0369 36.5503 15.0369H34.4146C34.0584 15.0369 33.7701 15.3252 33.7701 15.6814C33.7701 16.0372 34.0584 16.3259 34.4146 16.3259H36.5503Z" fill="white"/>
<path d="M32.524 6.60533L31.0137 8.11562C30.7623 8.36739 30.7623 8.77525 31.014 9.02702C31.1396 9.15291 31.3047 9.21568 31.4696 9.21568C31.6344 9.21568 31.7996 9.15291 31.9254 9.02702L33.4354 7.51674C33.6872 7.26497 33.6872 6.8571 33.4354 6.60533C33.184 6.35356 32.7758 6.35356 32.524 6.60533Z" fill="white"/>
</g>
<defs>
<clipPath id="clip0_1_11546">
<rect width="44" height="44" fill="white" transform="translate(0 -0.000976562)"/>
</clipPath>
</defs>
</svg>

<svg width="44" height="44" fill="none" xmlns="http://www.w3.org/2000/svg"><g clip-path="url(#a)" fill="#fff"><path d="M24.37-.001c-8.99 0-16.305 7.314-16.305 16.305v2.674l-4.54 7.813a.645.645 0 0 0-.087.324v2.714c0 .356.288.645.644.645h3.983v4.338a3.496 3.496 0 0 0 3.492 3.492h1.311a.644.644 0 0 0 0-1.29h-1.311a2.205 2.205 0 0 1-2.203-2.202v-4.338h1.847a.645.645 0 0 0 .644-.645v-4.271a.645.645 0 0 0-.644-.645H9.777a.644.644 0 1 0 0 1.29h.78v2.982h-5.83v-1.559h2.202a.645.645 0 0 0 0-1.289H5.28l3.98-6.847a.643.643 0 0 0 .095-.338v-2.848c0-8.28 6.736-15.016 15.016-15.016 8.28 0 15.016 6.736 15.016 15.016v5.695c0 6.193-3.704 11.654-9.446 13.948h-1.655a.644.644 0 1 0 0 1.289h1.135v5.474H17.54v-4.406h1.49a.644.644 0 1 0 0-1.29h-3.58a.645.645 0 0 0 0 1.29h.8v5.05c0 .357.29.645.645.645h13.17a.644.644 0 0 0 .644-.645v-6.329a16.285 16.285 0 0 0 7.055-5.726 16.209 16.209 0 0 0 2.911-9.3v-5.695c0-8.99-7.314-16.305-16.305-16.305Z"/><path d="M15.885 15.592c0 1.74.523 3.411 1.513 4.834a8.463 8.463 0 0 0 3.47 2.89v1.33H20.8a.644.644 0 1 0 0 1.29h.067v1.758c0 .356.288.644.644.644h.068v1.491c0 .356.288.645.644.645h4.271a.645.645 0 0 0 .645-.645v-1.49h.067a.645.645 0 0 0 .645-.645v-1.758h.067a.645.645 0 1 0 0-1.29h-.067v-1.33a8.463 8.463 0 0 0 3.47-2.89 8.425 8.425 0 0 0 1.512-4.834c0-4.673-3.801-8.475-8.474-8.475s-8.475 3.802-8.475 8.475Zm6.984 2.069h.512l1.235 1.235a.646.646 0 0 0 .912 0l.323-.324v3.672h-2.982v-4.583Zm2.982 11.524h-2.982v-.847h2.982v.847Zm.712-2.136h-4.406v-1.113h4.406v1.113Zm-4.406-2.402v-1.114h4.406v1.114h-4.406Zm2.203-16.24c3.962 0 7.185 3.223 7.185 7.185a7.142 7.142 0 0 1-4.405 6.627v-5.915a.645.645 0 0 0-1.29 0v.445l-.778.78-.968-.969a.645.645 0 0 0-.456-.188h-.78v-.068a.645.645 0 0 0-1.288 0v5.915a7.142 7.142 0 0 1-4.406-6.627c0-3.962 3.223-7.186 7.186-7.186ZM25.004 5.626V3.491a.644.644 0 1 0-1.289 0v2.135a.644.644 0 1 0 1.29 0ZM16.195 6.606a.645.645 0 0 0-.911.911l1.51 1.51a.643.643 0 0 0 .912 0 .644.644 0 0 0 0-.911l-1.51-1.51ZM14.305 15.037h-2.136a.645.645 0 0 0 0 1.289h2.136a.644.644 0 1 0 0-1.29ZM16.794 22.335l-1.51 1.51a.644.644 0 1 0 .911.912l1.51-1.51a.645.645 0 0 0-.91-.912ZM31.014 22.335a.644.644 0 0 0 0 .912l1.51 1.51a.643.643 0 0 0 .912 0 .645.645 0 0 0 0-.912l-1.51-1.51a.644.644 0 0 0-.912 0ZM36.55 16.326a.644.644 0 1 0 0-1.29h-2.135a.644.644 0 1 0 0 1.29h2.135ZM32.524 6.605l-1.51 1.51a.645.645 0 0 0 .911.912l1.51-1.51a.644.644 0 1 0-.911-.912Z"/></g><defs><clipPath id="a"><path fill="#fff" transform="translate(0 -.001)" d="M0 0h44v44H0z"/></clipPath></defs></svg>
